!!!COM: Palestrina, Giovanni Perluigi da
!!!OPR: Missa In semidupl. maj. (I)
!!!OMD: Gloria
!!!OTL: Tu solus Altissimus
**kern	**kern	**kern	**kern	**kern
*Ibass	*Itenor	*Itenor	*Icalto	*Icant
!Bassus	!Tenor 2	!Tenor 1	!Altus	!Cantus
*clefF4	*clefGv2	*clefGv2	*clefG2	*clefG2
*k[b-]	*k[b-]	*k[b-]	*k[b-]	*k[b-]
*F:ion	*F:ion	*F:ion	*F:ion	*F:ion
*M4/2	*M4/2	*M4/2	*M4/2	*M4/2
=118	=118	=118	=118	=118
1BB-	1B-	0r	1d	1f
1BB-	1d	.	[1f	1b-
=119	=119	=119	=119	=119
1FF	1c	1F	1f]	1a
2FF	1A	1F	[1c	1f
[2F	.	.	.	.
=120	=120	=120	=120	=120
2F]	1.G	1C	1c]	1.g
4E	.	.	.	.
4D	.	.	.	.
2E	.	1C	[1c	.
2E	2G	.	.	2g
=121	=121	=121	=121	=121
1F	1A	1F	2c]	4f
.	.	.	.	4g
.	.	.	1f	4a
.	.	.	.	4b-
1C	2G	1G	.	[1cc
.	[2c	.	2e	.
=122	=122	=122	=122	=122
2.F	4c]	0A	1f	1cc]
.	4B-	.	.	.
.	4A	.	.	.
4E	4G	.	.	.
1D	2F	.	1f	[1dd
.	2D	.	.	.
=123	=123	=123	=123	=123
0AA	0E	0A	1e	1dd]
.	.	.	2e	1cc
.	.	.	2A	.
=124	=124	=124	=124	=124
2BB-	2r	0G	1d	0b-
2.GG	4G	.	.	.
.	4A	.	.	.
.	4B-	.	2.d	.
4AA	4c	.	.	.
4BB-	[2d	.	.	.
4C	.	.	4e	.
=125	=125	=125	=125	=125
2.D	2d]	0F	2f	2.a
.	2d	.	4F	.
4E	.	.	4G	4g
1F	[1c	.	4A	4f
.	.	.	4B-	4g
.	.	.	4c	4a
.	.	.	4d	4b-
=126	=126	=126	=126	=126
0C	0c]	0G	2e	1cc
.	.	.	1f	.
.	.	.	.	1g
.	.	.	2e	.
=127	=127	=127	=127	=127
[0FF	[0c	[0F	[0f	[0a
=128	=128	=128	=128	=128
0FF]	0c]	0F]	0f]	0a]
*-	*-	*-	*-	*-
!!!CDT: 1525/^1526/-1594/2/2
!!!OCY: Italia
!!!AGN: Mass (Paraphrase)
!!!AST: renaissance, vocal
!!!ASW: Gregorian Mass
!!!PWK: Masses, Book Mantuan II
!!!RNB: Cadence finals: C
!!!YOR: Le Opere Complete, v. 19, p. 129
!!!YOO: Rome, Italy: Fratelli Scalera
!!!END: 1992//
!!!EED: John Miller
!!!YEC: Copyright 2000, John Miller
!!!YEN: United States of America
!!!YEM: Rights to all derivative electronic formats reserved.
!!!YEM: Refer to licensing agreement for further details.
!!!YEM: This file must be accompanied by the licensing agreement.
!!!YEM: A copy of the licensing agreement may be found at http://www.music-cog.ohio-state.edu/HumdrumDatabases/Palestrina/license.txt
!!!EMD: converted to Humdrum by Bret Aarden
